X: 32764
T: Polska From Enviken
R: three-two
M: 3/2
K: Gminor
M:3/4
A|B>B A/B/4A/4G/^F/ G>B|dd cB/c/ d>d|g>g dd BB|BA/G/ GA/G/ ^F2|
B>B A/B/4A/4G/^F/ G>B|dd cB/c/ d>d|g>g dd BB|AG/^F/ G2G:|
K:G
|:B|d>d ee f>f|ga/g/ fg/f/ ef/e/|d>d ee ff|g/a/g/B/ d2d B|
d>d bb aa|c>e a/b/a/f/ g>B|cB/c/ e/f/e/d/ c/d/c/A/|F/G/A/F/ G>B d>B|
d>d bb aa|c>e a/b/a/f/ g>B|cB/c/ e/f/e/d/ c/d/c/A/|F/G/A/F/ G2G:|

